static/img/kroki/e6fd4319896889432c5b258fd0804640.svg

<?xml version="1.0" encoding="us-ascii" standalone="no"?><svg xmlns="http://www.w3.org/2000/svg" xmlns:xlink="http://www.w3.org/1999/xlink" contentStyleType="text/css" height="252px" preserveAspectRatio="none" style="width:506px;height:252px;" version="1.1" viewBox="0 0 506 252" width="506px" zoomAndPan="magnify"><defs/><g><!--class gcp_forwarding_rule--><g id="elem_gcp_forwarding_rule"><rect codeLine="23" fill="#3D176E" height="39.7891" id="gcp_forwarding_rule" rx="2.5" ry="2.5" style="stroke:#000D19;stroke-width:0.5;" width="212" x="7" y="106.79"/><ellipse cx="22" cy="126.6845" fill="#ADD1B2" rx="11" ry="11" style="stroke:#181818;stroke-width:1.0;"/><path d="M24.9688,132.3252 Q24.3906,132.622 23.75,132.7627 Q23.1094,132.9189 22.4063,132.9189 Q19.9063,132.9189 18.5781,131.2783 Q17.2656,129.622 17.2656,126.497 Q17.2656,123.372 18.5781,121.7158 Q19.9063,120.0595 22.4063,120.0595 Q23.1094,120.0595 23.75,120.2158 Q24.4063,120.372 24.9688,120.6689 L24.9688,123.3877 Q24.3438,122.8095 23.75,122.5439 Q23.1563,122.2627 22.5313,122.2627 Q21.1875,122.2627 20.5,123.3408 Q19.8125,124.4033 19.8125,126.497 Q19.8125,128.5908 20.5,129.6689 Q21.1875,130.7314 22.5313,130.7314 Q23.1563,130.7314 23.75,130.4658 Q24.3438,130.1845 24.9688,129.6064 L24.9688,132.3252 Z " fill="#000000"/><text fill="#D9B8FF" font-family="Helvetica" font-size="17" lengthAdjust="spacing" textLength="170" x="41" y="132.5698">gcp_forwarding_rule</text></g><!--class gcp_network--><g id="elem_gcp_network"><rect codeLine="26" fill="#3D176E" height="39.7891" id="gcp_network" rx="2.5" ry="2.5" style="stroke:#000D19;stroke-width:0.5;" width="149" x="117.5" y="7"/><ellipse cx="132.5" cy="26.8945" fill="#ADD1B2" rx="11" ry="11" style="stroke:#181818;stroke-width:1.0;"/><path d="M135.4688,32.5352 Q134.8906,32.832 134.25,32.9727 Q133.6094,33.1289 132.9063,33.1289 Q130.4063,33.1289 129.0781,31.4883 Q127.7656,29.832 127.7656,26.707 Q127.7656,23.582 129.0781,21.9258 Q130.4063,20.2695 132.9063,20.2695 Q133.6094,20.2695 134.25,20.4258 Q134.9063,20.582 135.4688,20.8789 L135.4688,23.5977 Q134.8438,23.0195 134.25,22.7539 Q133.6563,22.4727 133.0313,22.4727 Q131.6875,22.4727 131,23.5508 Q130.3125,24.6133 130.3125,26.707 Q130.3125,28.8008 131,29.8789 Q131.6875,30.9414 133.0313,30.9414 Q133.6563,30.9414 134.25,30.6758 Q134.8438,30.3945 135.4688,29.8164 L135.4688,32.5352 Z " fill="#000000"/><text fill="#D9B8FF" font-family="Helvetica" font-size="17" lengthAdjust="spacing" textLength="107" x="151.5" y="32.7798">gcp_network</text></g><!--class gcp_target_vpn_gateway--><g id="elem_gcp_target_vpn_gateway"><rect codeLine="29" fill="#3D176E" height="39.7891" id="gcp_target_vpn_gateway" rx="2.5" ry="2.5" style="stroke:#000D19;stroke-width:0.5;" width="251" x="146.5" y="206.58"/><ellipse cx="161.5" cy="226.4745" fill="#ADD1B2" rx="11" ry="11" style="stroke:#181818;stroke-width:1.0;"/><path d="M164.4688,232.1152 Q163.8906,232.412 163.25,232.5527 Q162.6094,232.7089 161.9063,232.7089 Q159.4063,232.7089 158.0781,231.0683 Q156.7656,229.412 156.7656,226.287 Q156.7656,223.162 158.0781,221.5058 Q159.4063,219.8495 161.9063,219.8495 Q162.6094,219.8495 163.25,220.0058 Q163.9063,220.162 164.4688,220.4589 L164.4688,223.1777 Q163.8438,222.5995 163.25,222.3339 Q162.6563,222.0527 162.0313,222.0527 Q160.6875,222.0527 160,223.1308 Q159.3125,224.1933 159.3125,226.287 Q159.3125,228.3808 160,229.4589 Q160.6875,230.5214 162.0313,230.5214 Q162.6563,230.5214 163.25,230.2558 Q163.8438,229.9745 164.4688,229.3964 L164.4688,232.1152 Z " fill="#000000"/><text fill="#D9B8FF" font-family="Helvetica" font-size="17" lengthAdjust="spacing" textLength="209" x="180.5" y="232.3598">gcp_target_vpn_gateway</text></g><!--class gcp_vpn_tunnel--><g id="elem_gcp_vpn_tunnel"><rect codeLine="32" fill="#3D176E" height="39.7891" id="gcp_vpn_tunnel" rx="2.5" ry="2.5" style="stroke:#000D19;stroke-width:0.5;" width="174" x="325" y="106.79"/><ellipse cx="340" cy="126.6845" fill="#ADD1B2" rx="11" ry="11" style="stroke:#181818;stroke-width:1.0;"/><path d="M342.9688,132.3252 Q342.3906,132.622 341.75,132.7627 Q341.1094,132.9189 340.4063,132.9189 Q337.9063,132.9189 336.5781,131.2783 Q335.2656,129.622 335.2656,126.497 Q335.2656,123.372 336.5781,121.7158 Q337.9063,120.0595 340.4063,120.0595 Q341.1094,120.0595 341.75,120.2158 Q342.4063,120.372 342.9688,120.6689 L342.9688,123.3877 Q342.3438,122.8095 341.75,122.5439 Q341.1563,122.2627 340.5313,122.2627 Q339.1875,122.2627 338.5,123.3408 Q337.8125,124.4033 337.8125,126.497 Q337.8125,128.5908 338.5,129.6689 Q339.1875,130.7314 340.5313,130.7314 Q341.1563,130.7314 341.75,130.4658 Q342.3438,130.1845 342.9688,129.6064 L342.9688,132.3252 Z " fill="#000000"/><text fill="#D9B8FF" font-family="Helvetica" font-size="17" lengthAdjust="spacing" textLength="132" x="359" y="132.5698">gcp_vpn_tunnel</text></g><!--link gcp_forwarding_rule to gcp_target_vpn_gateway--><g id="link_gcp_forwarding_rule_gcp_target_vpn_gateway"><path codeLine="35" d="M144.41,147.01 C172.29,164.15 207.6902,185.9152 235.5402,203.0552 " fill="none" id="gcp_forwarding_rule-to-gcp_target_vpn_gateway" style="stroke:#1A83AF;stroke-width:2.0;"/><polygon fill="#1A83AF" points="240.65,206.2,235.0818,198.0763,236.3918,203.5793,230.8887,204.8894,240.65,206.2" style="stroke:#1A83AF;stroke-width:2.0;"/></g><!--link gcp_network to gcp_forwarding_rule--><g id="link_gcp_network_gcp_forwarding_rule"><path codeLine="36" d="M176.39,47.22 C162.54,64.36 146.1894,84.6018 132.3494,101.7418 " fill="none" id="gcp_network-to-gcp_forwarding_rule" style="stroke:#1A83AF;stroke-width:2.0;"/><polygon fill="#1A83AF" points="128.58,106.41,137.3462,101.9207,131.7212,102.5199,131.122,96.8948,128.58,106.41" style="stroke:#1A83AF;stroke-width:2.0;"/></g><!--link gcp_network to gcp_target_vpn_gateway--><g id="link_gcp_network_gcp_target_vpn_gateway"><path codeLine="37" d="M204.24,47.09 C213.82,62.71 226.99,85.57 236,106.79 C250.39,140.68 260.1872,176.4236 266.0572,200.2936 " fill="none" id="gcp_network-to-gcp_target_vpn_gateway" style="stroke:#1A83AF;stroke-width:2.0;"/><polygon fill="#1A83AF" points="267.49,206.12,269.2251,196.4252,266.296,201.2647,261.4565,198.3356,267.49,206.12" style="stroke:#1A83AF;stroke-width:2.0;"/></g><!--link gcp_vpn_tunnel to gcp_target_vpn_gateway--><g id="link_gcp_vpn_tunnel_gcp_target_vpn_gateway"><path codeLine="38" d="M384.34,147.01 C359.8,164.15 329.0483,185.6234 304.5183,202.7634 " fill="none" id="gcp_vpn_tunnel-to-gcp_target_vpn_gateway" style="stroke:#1A83AF;stroke-width:2.0;"/><polygon fill="#1A83AF" points="299.6,206.2,309.2685,204.324,303.6986,203.3362,304.6864,197.7662,299.6,206.2" style="stroke:#1A83AF;stroke-width:2.0;"/></g><!--SRC=[ZP31IiD048RlUOg5dWkDHTjUX5WeUYcYtaJ2D3kRBabsm-oaeOhlhh4gwwPflSx_xJ_Vx5PB55ZLl1SLLXia5xb2cne8Af4GsNPfIqjYf1IewImCLzRmMM0D5OfRB7V8EeEGUDhgh33edBZmeXl8YfniO-IXdWcC-upGi4SjIt0kOIQzQHWz6RdOp9KAoR1qD9Nnx0fxc2M9z8rC9XCPBqBaxAgJT_yIZ_eLHUn_sjeozZHxAxweavOTuKds3lt91ntlGKfjSd7fpHuEJcIG_imVjo1jsz4AIkUlSOo4blSrBdjNuM8krUmeV3S4HrdtTIBFwbHPQe4wnvIQ4iLR5BrxiK5kBHNXc85ov7HNcpG7nXRs8T55t1Y3vI4vjclyF8gJ-JHPlOol1seZNwB71uMduO5oJ_G_Jpu0]--></g></svg>

<svg xmlns="http://www.w3.org/2000/svg" width="506" height="252" viewBox="0 0 506 252"><rect width="212" height="39.789" x="7" y="106.79" fill="#3D176E" rx="2.5" ry="2.5" style="stroke:#000d19;stroke-width:.5"/><circle cx="22" cy="126.684" r="11" fill="#ADD1B2" style="stroke:#181818;stroke-width:1"/><path d="M24.969 132.325q-.578.297-1.219.438-.64.156-1.344.156-2.5 0-3.828-1.64-1.312-1.657-1.312-4.782t1.312-4.781q1.328-1.656 3.828-1.656.703 0 1.344.156.656.156 1.219.453v2.719q-.625-.579-1.219-.844-.594-.281-1.219-.281-1.343 0-2.031 1.078-.687 1.062-.687 3.156t.687 3.172q.688 1.062 2.031 1.062.625 0 1.219-.265.594-.281 1.219-.86z"/><text x="41" y="132.57" fill="#D9B8FF" font-family="Helvetica" font-size="17" textLength="170">gcp_forwarding_rule</text><rect width="149" height="39.789" x="117.5" y="7" fill="#3D176E" rx="2.5" ry="2.5" style="stroke:#000d19;stroke-width:.5"/><circle cx="132.5" cy="26.895" r="11" fill="#ADD1B2" style="stroke:#181818;stroke-width:1"/><path d="M135.469 32.535q-.578.297-1.219.438-.64.156-1.344.156-2.5 0-3.828-1.64-1.312-1.657-1.312-4.782t1.312-4.781q1.328-1.656 3.828-1.656.703 0 1.344.156.656.156 1.219.453v2.719q-.625-.578-1.219-.844-.594-.281-1.219-.281-1.344 0-2.031 1.078-.687 1.062-.687 3.156t.687 3.172q.688 1.062 2.031 1.062.625 0 1.219-.265.594-.281 1.219-.86z"/><text x="151.5" y="32.78" fill="#D9B8FF" font-family="Helvetica" font-size="17" textLength="107">gcp_network</text><rect width="251" height="39.789" x="146.5" y="206.58" fill="#3D176E" rx="2.5" ry="2.5" style="stroke:#000d19;stroke-width:.5"/><circle cx="161.5" cy="226.475" r="11" fill="#ADD1B2" style="stroke:#181818;stroke-width:1"/><path d="M164.469 232.115q-.578.297-1.219.438-.64.156-1.344.156-2.5 0-3.828-1.64-1.312-1.657-1.312-4.782t1.312-4.781q1.328-1.656 3.828-1.656.703 0 1.344.156.656.156 1.219.453v2.719q-.625-.578-1.219-.844-.594-.281-1.219-.281-1.344 0-2.031 1.078-.687 1.062-.687 3.156t.687 3.172q.688 1.062 2.031 1.062.625 0 1.219-.265.594-.281 1.219-.86z"/><text x="180.5" y="232.36" fill="#D9B8FF" font-family="Helvetica" font-size="17" textLength="209">gcp_target_vpn_gateway</text><rect width="174" height="39.789" x="325" y="106.79" fill="#3D176E" rx="2.5" ry="2.5" style="stroke:#000d19;stroke-width:.5"/><circle cx="340" cy="126.684" r="11" fill="#ADD1B2" style="stroke:#181818;stroke-width:1"/><path d="M342.969 132.325q-.578.297-1.219.438-.64.156-1.344.156-2.5 0-3.828-1.64-1.312-1.657-1.312-4.782t1.312-4.781q1.328-1.656 3.828-1.656.703 0 1.344.156.656.156 1.219.453v2.719q-.625-.579-1.219-.844-.594-.281-1.219-.281-1.344 0-2.031 1.078-.687 1.062-.687 3.156t.687 3.172q.688 1.062 2.031 1.062.625 0 1.219-.265.594-.281 1.219-.86z"/><text x="359" y="132.57" fill="#D9B8FF" font-family="Helvetica" font-size="17" textLength="132">gcp_vpn_tunnel</text><path fill="none" d="M144.41 147.01c27.88 17.14 63.28 38.905 91.13 56.045" style="stroke:#1a83af;stroke-width:2"/><path fill="#1A83AF" d="m240.65 206.2-5.568-8.124 1.31 5.503-5.503 1.31z" style="stroke:#1a83af;stroke-width:2"/><path fill="none" d="M176.39 47.22c-13.85 17.14-30.2 37.382-44.04 54.522" style="stroke:#1a83af;stroke-width:2"/><path fill="#1A83AF" d="m128.58 106.41 8.766-4.49-5.625.6-.599-5.625z" style="stroke:#1a83af;stroke-width:2"/><path fill="none" d="M204.24 47.09c9.58 15.62 22.75 38.48 31.76 59.7 14.39 33.89 24.187 69.634 30.057 93.504" style="stroke:#1a83af;stroke-width:2"/><path fill="#1A83AF" d="m267.49 206.12 1.735-9.695-2.929 4.84-4.84-2.93z" style="stroke:#1a83af;stroke-width:2"/><path fill="none" d="M384.34 147.01c-24.54 17.14-55.292 38.613-79.822 55.753" style="stroke:#1a83af;stroke-width:2"/><path fill="#1A83AF" d="m299.6 206.2 9.668-1.876-5.57-.988.988-5.57z" style="stroke:#1a83af;stroke-width:2"/></svg>
